X:75
T:V{\aa}ngapolskan
R:sl\"angpolska
H:Spelades \"aven av Pelle Fors
H:Jfr #183
A:\"Osterg\"otland
B:Version 1: SvL \"Ogl 314, version 2: C A Lindblom 89
Z:id:hn-sp-75
M:3/4
L:1/16
K:D
D2FA d4 d4 | d2cd e2de fedc | d2b2 b2a2 a2g2 | g2f2 efed cBAG |
F2D2 D2F2 F2ED | A,2{E}A2 A,2{E}A2 A,2{E}A2 | F2D2 D2F2 F2ED |
A,2{E}A2 A,2{E}A2 A,2{E}A2 | DEFG ABcd efge | bage c2d2 d4 :|
|: A2ce a4 a4- | a2^ga b2bg e4 | a2ba e4 c4 | d2f2 edcB AGFE |
FAdA FAdA FAdA | B2G2 G2B2 Bdcd | e2ed cded cded | d2f2 edcB AGFE |
F2D2 D2F2 F2ED | A,2{E}A2 A,2{E}A2 A,2{E}A2 | F2D2 D2F2 F2ED |
A,2{E}A2 A,2{E}A2 A,2{E}A2 | DEFG ABcd efge | bage c2d2 d4 :|
P:version 2
|: D2FA d4 d4 | d2cd e2de fedc | d2b2 b2a2 a2g2 | f2ed cdec A4 |
{G}F2D2 D2F2 F2ED | [E2A,2][E2A,2] [E2A,2][E2A,2] [E2A,2][E2A,2] |
{G}F2D2 D2F2 F2ED | [E2A,2][E2A,2] [E2A,2][E2A,2] [E2A,2][E2A,2] |
DEFG ABcd efga | bgec c2d2 [d4D4] :||: A2ce a4 a4 | a2ga b2bg e4 |
a2be e4 c4 | d3f edcB A4 | FAdA FAdA FAdA | B2G2 G,2B2 B2d2 |
cdec cdec cdec | d3f edcB A4 | {G}F2D2 D2F2 F2ED |
A,EAE A,EAE A,EAE | DEFG ABcd efga | bgec c2d2 [d4D4] :|
<end>
<start>
